icons/child_care_fill.svg

<svg width="48" height="48" viewBox="0 0 48 48" fill="none" xmlns="http://www.w3.org/2000/svg">
<path d="M32.7409 14.9984C35.2257 14.9984 37.24 12.9841 37.24 10.4992C37.24 8.01442 35.2257 6 32.7409 6C30.2561 6 28.2417 8.01442 28.2417 10.4992C28.2417 12.9841 30.2561 14.9984 32.7409 14.9984Z" fill="black"/>
<path d="M20.7366 20.4688C21.7659 19.4336 21.7612 17.76 20.726 16.7307C19.6908 15.7013 18.0172 15.7061 16.9878 16.7413L15.0269 18.7134H12.4411C10.9813 18.7134 9.79785 19.8969 9.79785 21.3567C9.79785 22.8166 10.9813 24 12.4411 24H15.2017C16.5568 24 17.8538 23.4499 18.7959 22.4757L20.7366 20.4688Z" fill="black"/>
<path d="M20.9148 29.1888C20.9148 29.1888 18.6371 28.764 17.7052 29.1888C17.0113 29.5051 14.3259 30.4693 13 30.941L13 39.8015C13.7674 39.7566 15.2933 39.6759 15.9451 39.7022C17.8882 39.7805 19.3391 40.2418 20.8062 40.7081C22.1749 41.1433 23.5575 41.5828 25.3668 41.7199C25.8215 41.7544 26.2641 41.7989 26.6931 41.842C28.2423 41.9977 29.6155 42.1358 30.7506 41.7199C32.2001 41.1889 40.4829 37.1535 41.5182 36.0915C42.5536 35.0296 42.0359 32.1623 38.8263 32.6933C37.2426 32.9553 35.4069 33.7085 33.7419 34.3917C32.0326 35.0931 30.5034 35.7206 29.6117 35.6668C27.8517 35.5606 23.1926 34.711 23.1926 34.711L28.542 34.7757C28.542 34.7757 29.2977 34.8159 30.3365 34.0738C31.3753 33.3318 32.3037 31.2065 30.7506 31.2065C29.1976 31.2065 27.541 30.6755 27.541 30.6755L20.9148 29.1888Z" fill="black"/>
<path d="M6 30.0007C6 29.4484 6.44772 29.0007 7 29.0007H10C10.5523 29.0007 11 29.4484 11 30.0007V40.9961C11 41.5484 10.5523 41.9961 10 41.9961H7C6.44772 41.9961 6 41.5484 6 40.9961V30.0007Z" fill="black"/>
<path d="M34.6317 18.6572C36.1047 18.6572 37.2989 19.8513 37.2989 21.3244C37.2989 22.7959 36.1073 23.9895 34.6357 23.9913C33.3416 23.993 31.9661 23.9946 31.4986 23.9946C31.485 23.9946 31.4723 23.9929 31.4596 23.9912C31.4469 23.9895 31.4342 23.9878 31.4206 23.9878C31.1044 23.996 30.7897 23.9386 30.4966 23.8192C30.2036 23.6998 29.9384 23.521 29.7179 23.294L28.997 22.572C28.5638 23.0212 28.0446 23.3785 27.4705 23.6229C26.8963 23.8673 26.2788 23.9936 25.6548 23.9946H22.5719L22.1041 14.6436H27.0619C28.1369 14.6436 29.1667 15.0763 29.919 15.8441L32.6754 18.6572H34.6317Z" fill="black"/>
</svg>

<svg
  xmlns="http://www.w3.org/2000/svg"
  width="24"
  height="24"
  viewBox="0 0 24 24"
  fill="none"
  stroke="currentColor"
  stroke-width="2"
  stroke-linecap="round"
  stroke-linejoin="round"
>
  <path d="M32.74 14.998a4.5 4.5 0 1 0 0-8.998 4.5 4.5 0 0 0 0 8.998" />
  <path d="M20.737 20.469a2.643 2.643 0 1 0-3.75-3.728l-1.96 1.972H12.44a2.643 2.643 0 0 0 0 5.287h2.76a5 5 0 0 0 3.595-1.524z" />
  <path d="M20.915 29.189s-2.278-.425-3.21 0c-.694.316-3.38 1.28-4.705 1.752v8.86c.767-.044 2.293-.125 2.945-.099 1.943.079 3.394.54 4.861 1.006 1.369.435 2.752.875 4.56 1.012.456.034.898.079 1.327.122 1.55.156 2.922.294 4.058-.122 1.45-.531 9.732-4.566 10.767-5.628s.518-3.93-2.692-3.399c-1.583.262-3.42 1.016-5.084 1.699-1.71.701-3.239 1.329-4.13 1.275-1.76-.106-6.42-.956-6.42-.956l5.35.065s.756.04 1.794-.702c1.04-.742 1.968-2.867.415-2.867s-3.21-.532-3.21-.532z" />
  <path d="M6 30a1 1 0 0 1 1-1h3a1 1 0 0 1 1 1v10.996a1 1 0 0 1-1 1H7a1 1 0 0 1-1-1z" />
  <path d="M34.632 18.657a2.667 2.667 0 0 1 .004 5.334l-3.137.004q-.02 0-.04-.004-.018-.003-.038-.003a2.3 2.3 0 0 1-1.703-.694l-.721-.722a4.65 4.65 0 0 1-3.342 1.423h-3.083l-.468-9.351h4.958a4 4 0 0 1 2.857 1.2l2.756 2.813z" />
</svg>
